X: 092
T: Miss Buchanan of Cambusmore's Jigg
R: jig
B: William Shepherd "1st Collection" 1793 p.9 #2
F: http://imslp.org/wiki/File:PMLP73094-Shepherd_Collections_HMT.pdf
C: William Shepherd (17??-1812)
Z: 2012 John Chambers <jc:trillian.mit.edu>
M: 6/8
L: 1/8
K: Em
B, |\
{EF}GFE EGE | EB,E TE2F | GAB cAd | BGD AFD |\
{EF}GFE EGE | EB,E TE2F | GAB cAF | BGE TE2 :|
B |\
e2f gfe | eBe e2f | g2a bge | afd def |\
e2f gfe | eBe e2F | GAB cAF | BGE E2 ||
B |\
e2f gfe | eBe e2f | g2a bge | afd d2g/a/ |\
bgb af^d | {a}gfe dBG | ABc BAF | BGE E2 |]
